X: 266
T:The Whistler of Rosslea
R:Reel
C:Ed Reavy
Z: transcribed by Bil 3/00
M:2/2
L:1/8
Z:Joe Reavy
N:Ed was to a fair once in Rosslea and heard 
N:this whistler. He had a 
N:whistling range that could 
N:easily match the register 
N:of a fiddle or flute. And he had 
N:all the embellishments of a great 
N:traditional player, too. He sold fish 
N:in the market places and charmed 
N:his customers with choice 
N:tunes-many of his own making.
K:D
GABc (3dcB cBA|=fdcA BGGE|=FGAB c2 Bc|(3dcB (3cBA BGAF|
GBAc Bdce|dgfa gfdc|3Bcd =fd c2 A^F|1 G2 AF DGGF:|
2G2 AF DG G2||:g2 dg Bgdg|gbag fdde|=f2 cf Afcf|
=fedc AG=FA|Gggf gfdc|Bcde fdcd|gfde =fdcA|
1GBAF DG G2:|2GBAF DGGF||
